src/components/star-rating/images/star-transparent.svg

<svg width="21" height="19" viewBox="0 0 21 19" fill="none" xmlns="http://www.w3.org/2000/svg">
<path d="M10.2637 13.4219L14.0137 15.6719L13.0293 11.4062L16.3574 8.5L11.9512 8.125L10.2637 4.09375L8.57617 8.125L4.16992 8.5L7.49805 11.4062L6.51367 15.6719L10.2637 13.4219ZM20.248 7.23438L14.8105 11.9688L16.4512 19L10.2637 15.25L4.07617 19L5.7168 11.9688L0.279297 7.23438L7.45117 6.625L10.2637 0.015625L13.0762 6.625L20.248 7.23438Z" fill="url(#paint0_linear_18381_435)"/>
<defs>
<linearGradient id="paint0_linear_18381_435" x1="10.2637" y1="-2" x2="10.2637" y2="22" gradientUnits="userSpaceOnUse">
<stop stop-color="#BC9CFF"/>
<stop offset="1" stop-color="#8BA4F9"/>
</linearGradient>
</defs>
</svg>

<svg width="21" height="19" fill="none" xmlns="http://www.w3.org/2000/svg"><path d="m10.264 13.422 3.75 2.25-.985-4.266L16.357 8.5l-4.406-.375-1.687-4.031-1.688 4.031L4.17 8.5l3.328 2.906-.984 4.266 3.75-2.25Zm9.984-6.188L14.81 11.97 16.451 19l-6.187-3.75L4.076 19l1.64-7.031L.28 7.234l7.172-.609 2.813-6.61 2.812 6.61 7.172.61Z" fill="url(#a)"/><defs><linearGradient id="a" x1="10.264" y1="-2" x2="10.264" y2="22" gradientUnits="userSpaceOnUse"><stop stop-color="#BC9CFF"/><stop offset="1" stop-color="#8BA4F9"/></linearGradient></defs></svg>
